X:1
T:Title
%%score { ( 1 3 5 ) | ( 2 4 ) }
L:1/8
Q:1/4=112
M:4/4
K:Bb
V:1 treble nm="Grand Piano"
V:3 treble 
V:5 treble 
V:2 bass 
V:4 bass 
V:1
 B2 F2 A3 G | F2 D2 F4 | A3 B c2 d2 | c4 [DB]4 | d2 c2 B3 A | G2 d2 c4 | %6
w: J.~Lincoln~Hall * * *||||||
 [=Ec]3 [E_d] [E=d]2 [E_d]2 | [EA]4 [EF]4 | [DB]2 [DB]2 z2 z F | z4 [EA]4 | c2 [Ec]2 z2 z d | %11
w: |||||
 [DB]2 [B,EG]2 [B,DF]4 | z4 [Fd]4 | [Ge]2 [Fd]2 c2 G2 | A3 B c2 d2 | c4 [DB]4 | d4 B4 | F4 D4 | %18
w: |||||||
 A3 B c2 d2 | c4 [DB]4 | d2- [^Fd]2 A2- [FA]2 | B4 G4 | [=Ec]3 [E_d] [E=d]2 [E_d]2 | [EA]4 [EF]4 | %24
w: ||||||
 [DB]2 [DB]2 z2 z F | z4 [EA]4 | c2 [Ec]2 z2 z d | [DB]2 [B,EG]2 [B,DF]4 | z4 [Fd]4 | %29
w: |||||
 [Ge]2 [Fd]2 c2 G2 | A3 B c2 d2 |[M:8/4] c4 [DB]4 z8 |] %32
w: |||
V:2
 B,2 F,2 A,3 G, | F,2 D,2 F,4 | [F,CE]3 [F,B,D] [F,A,E]2 [F,B,F]2 | E4 z4 | D2 C2 B,3 A, | %5
 G,2 D2 C4 | [C,B,]3 [C,B,] [C,G,]2 [C,C]2 | [F,C]2 F,2 F,2 F,2 | [B,,F,]2 [F,,F,]2 [B,,F,]2 z D | %9
 [C,F,]2 [F,,F,]2 [C,F,]2 F,,2 | [F,A,E]2 [F,,F,]2 [F,A,]2 z F | [B,,F,]2 B,,2 B,,2 D,F, | %12
 B,2 B,2 B,2 z F | [C,C]2 [D,=B,]2 [E,CE]4 | [F,CE]3 [F,B,D] [F,A,E]2 [F,B,F]2 | %15
 [F,A,E]4 [B,,F,]4 | [B,,B,]2 [B,,B,]2 [B,,F,]2 [B,,F,]2 | [B,,B,]2 [B,,B,]2 [B,,F,B,]2 [B,,F,]2 | %18
 [F,CE]3 [F,B,D] [F,A,E]2 [F,B,F]2 | [F,A,]2 z2 z4 | [D,A,]2 [D,A,]2 [D,D]2 [D,D]2 | %21
 [G,DG]2 [G,D]2[K:bass] [G,B,D]2 [G,B,]2 | [C,B,]3 [C,B,] [C,G,]2 [C,C]2 | [F,C]2 F,2 F,2 F,2 | %24
 [B,,F,]2 [F,,F,]2 [B,,F,]2 z D | [C,F,]2 [F,,F,]2 [C,F,]2 F,,2 | [F,A,E]2 [F,,F,]2 [F,A,]2 z F | %27
 [B,,F,]2 B,,2 B,,2 D,F, | B,2 B,2 B,2 z F | [C,C]2 [D,=B,]2 [E,CE]4 | %30
 [F,CE]3 [F,B,D] [F,A,E]2 [F,B,F]2 |[M:8/4] [F,A,E]4 [B,,F,]4 z8 |] %32
V:3
 x8 | x8 | x8 | z2 A,2 B,2 B,2 | x8 | x8 | x8 | z2 C2 A,2 A,2 | z4 [DB]4 | [EA]2 [EA]2 z2 F,2 | %10
 z4 [Ec]4 | x8 | [DFd]2 [DFd]2 D2 z f | x8 | x8 | x8 | F2 F2 D2 D2 | D2 D2 z2 B,2 | x8 | %19
 z2 A,2 B,2 B,2 | ^F2 z2 F2 z2 | z2 G2 z2 D2 | x8 | z2 C2 A,2 A,2 | z4 [DB]4 | [EA]2 [EA]2 z2 F,2 | %26
 z4 [Ec]4 | x8 | [DFd]2 [DFd]2 D2 z f | x8 | x8 |[M:8/4] x16 |] %32
V:4
 x8 | x8 | x8 | [F,A,]2 F,2 B,,2 B,,2 | x8 | x8 | x8 | x8 | z4 z2 F,,2 | x8 | z4 z2 F,,2 | x8 | %12
 z4 z2 B,2 | x8 | x8 | x8 | x8 | x8 | x8 | E2- [F,E]2 B,,2 B,,2 | x8 | x4[K:bass] x4 | x8 | x8 | %24
 z4 z2 F,,2 | x8 | z4 z2 F,,2 | x8 | z4 z2 B,2 | x8 | x8 |[M:8/4] x16 |] %32
V:5
 x8 | x8 | x8 | x8 | x8 | x8 | x8 | x8 | z4 z2 F,2 | x8 | z4 z2 F,2 | x8 | z4 z2 D2 | x8 | x8 | %15
 x8 | x8 | x8 | x8 | x8 | x8 | x8 | x8 | x8 | z4 z2 F,2 | x8 | z4 z2 F,2 | x8 | z4 z2 D2 | x8 | %30
 x8 |[M:8/4] x16 |] %32

